X:1
T:Sing Praise to Jesus
T:Victor H. Benke
T:Sing Praise to Jesus
T:Public Domain
T:Public Domain
C:Victor H. Benke
Z:Public Domain
%%score ( 1 2 ) 3
L:1/8
M:6/8
K:C
V:1 treble 
V:2 treble 
V:3 bass 
V:1
 [EG]2 [^D^F] [EG]2 [=FA] | [EG]2 [Ec] [EG]3 | [Ec]3 [EB]2 [EA] | [FB]3 [DF]3 | %4
w: 1.~Wake the joy- ful,|joy- ful lay,|Sing praise to|Je- sus;|
w: 2.~Teach- ers, help us,|ev- ery one,|Sing praise to|Je- sus;|
w: 3.~For the school we|love so dear,|Sing praise to|Je- sus;|
 [DF]2 [^CE] [DF]2 [FA] | [EG]2 [^D^F] [EG]3 | [DB]3 [^Fc]2 [DF] | [^FA]3 G3 | %8
w: With the mer- ry|birds to- day,|Sing praise to|Je- sus.|
w: For the work that|grace has done,|Sing praise to|Je- sus.|
w: For the friends that|meet us here,|Sing praise to|Je- sus;|
 [FB]2 [FG] [FB]2 [Fd] | [DF]2 [^CE] [DF]3 | [Fd]2 [E^c] [Fd]2 [Ge] | [Ec]2 [CE] [EG]3 | %12
w: ther now a grate-|ful throng, Let|our school be full|of song, Heart|
w: His all pro- tect-|ing care, For|the com- forts that|we share, For|
w: the bless- ings He|be- stows, For|His love that free-|ly flows, For|
 [Ge]2 [FB] [Gc]2 [EG] | [FA]2 [E^G] [FA]3 | [FG]3 [FA]2 [GB] | [Fd]3 [Ec]3 |] %16
w: and voice the strain|pro- long, Sing|praise to Je-|sus. *|
w: a world like ours|so fair, Sing|praise to Je-|sus. *|
w: this hour of calm|re- pose, Sing|praise to Je-|sus. *|
V:2
 x6 | x6 | x6 | x6 | x6 | x6 | x6 | x3 G3 | x6 | x6 | x6 | x6 | x6 | x6 | x6 | x6 |] %16
w: |||||||Ga-|||||||||
w: |||||||For|||||||||
w: |||||||For|||||||||
V:3
 [C,C]2 [C,C] [C,C]2 [C,A,] | [C,C]2 [C,G,] [C,C]3 | [C,G,]3 [C,G,]2 [C,G,] | [D,G,]3 [G,B,]3 | %4
 [G,B,]2 [G,B,] [G,B,]2 [G,B,] | [C,C]2 [C,A,] [C,C]3 | [D,G,]3 [D,A,]2 [D,C] | [D,C]3 [G,B,]3 | %8
 [G,D]2 [G,B,] [G,D]2 [G,B,] | [G,B,]2 [G,B,] [G,B,]3 | [G,B,]2 [G,^A,] [G,B,]2 [G,B,] | %11
 [C,C]2 [C,G,] [C,C]3 | [C,C]2 [D,G,] [E,C]2 [C,C] | [F,C]2 [F,C] [F,C]3 | [G,B,]3 [G,C]2 [G,D] | %15
 [G,B,]3 [C,C]3 |] %16

